T: Thank God We're Surrounded By Water
M: 6/8
L: 1/8
K: Edor
ADD DCD | EGG A2 B | cBc AcA | GED C2 A, |D3 DCD | EGG A2 B | cBA GEC | D3 D2  :|Add dcd | dcd e2 d | cBc AcA | GED CEG |Add dcd | dcd e2 d | cBA GEC | D3 D2  :|BEE EDE | FAA B2 c | dcd BdB | AFE D2 B, |E3 EDE | FAA B2 c | dcB AFD | E3 E2 :|Bee ede | ede f2 e | dcd BdB | AFE DFA |Bee ede | ede f2 e | dcB AFD | E3 E2 :|
